static/assets/template/assets/img/icons/essential/detailed/Discount.svg

<svg height="136" viewBox="0 0 137 136" width="137" xmlns="http://www.w3.org/2000/svg"><g fill="none" fill-rule="evenodd" transform="translate(2 1)"><g fill-rule="nonzero"><path d="m94.6 125.1c-1.2-.1-2.3-.1-3.5-.2-6.1-.9-11.5.8-16.5 4.3-7.8 5.5-7.9 5.5-15.7 0-5.1-3.6-10.5-5-16.8-4.3-8.8 1-9.2.7-12.9-7.4-2.7-5.9-6.9-10.1-12.8-12.8-8.1-3.7-8.4-4.1-7.4-12.9.7-6.3-.8-11.8-4.5-17-5.4-7.5-5.4-7.8 0-15.3 3.7-5.1 5.2-10.7 4.5-17-1-8.8-.7-9.3 7.4-12.9 6-2.6 10.1-6.8 12.8-12.7 3.7-8.2 4.2-8.5 13.1-7.4 6.2.8 11.5-.8 16.5-4.3 7.8-5.6 7.9-5.6 15.7-.1 5.1 3.6 10.5 5.1 16.8 4.4 8.8-1.1 9.4-.7 13.1 7.5 2.6 5.9 6.7 10 12.6 12.6 8.2 3.7 8.6 4.2 7.5 13.1-.7 6.3.8 11.8 4.5 17 5.3 7.4 5.3 7.8.1 15.1-3.7 5.2-5.3 10.8-4.6 17.2 1 8.7.6 9.3-7.5 12.9-5.9 2.6-10.1 6.6-12.6 12.6-.4 1-1 1.9-1.4 2.9-1.5 3.6-4 5.6-8.4 4.7z"/><path d="m129.2 62.1c-3.6-5-5.1-10.3-4.4-16.4.9-8.1.7-9-6-12-.4-.2-.8-.4-1.3-.6-.3-.1-.6-.3-.8-.4-5.2-2.5-8.9-6.4-11.3-11.8-.1-.2-.2-.5-.3-.7-1.9-4.3-3-6.2-5.3-6.7-1.6-.4-3.7-.2-7.1.2-6 .7-11.3-.8-16.2-4.2-7.5-5.3-7.6-5.3-15.1.1-4.8 3.4-10 4.9-15.9 4.2-8.6-1-9.1-.8-12.7 7.1-2.6 5.7-6.6 9.7-12.3 12.3-7.8 3.5-8.1 4-7.1 12.5.7 6.1-.8 11.4-4.3 16.4-5.2 7.3-5.2 7.5 0 14.8 3.5 5 5 10.3 4.3 16.4-.1 1.1-.2 2.1-.3 3-.1 1.2-.1 2.1 0 2.9.3 3.2 2.1 4.1 7.5 6.6 2.4 1.1 4.5 2.4 6.3 4 2.1 1.8 3.8 4 5.2 6.6.3.5.6 1.1.8 1.6 3.6 7.9 4 8.1 12.5 7.2 6-.7 11.3.7 16.2 4.2 7.6 5.3 7.7 5.3 15.2 0 4.8-3.4 10-5.1 16-4.2 1.1.2 2.2.2 3.3.2 4.2.9 6.7-1 8.2-4.7.4-.9.9-1.9 1.3-2.8 2.4-5.7 6.5-9.6 12.1-12.1 7.8-3.5 8.2-4.1 7.2-12.4-.7-6.2.8-11.6 4.4-16.6 5-7.2 5-7.6-.1-14.7z"/><path d="m129.3 76.6c-3.6 5-5.1 10.4-4.4 16.6 1 8.4.6 9-7.2 12.4-5.7 2.5-9.8 6.4-12.1 12.1-.4.9-.9 1.9-1.3 2.8-1.5 3.7-4 5.7-8.2 4.7-1.1-.1-2.2 0-3.3-.2-5.9-.9-11.1.8-16 4.2-7.5 5.3-7.6 5.3-15.2 0-4.9-3.5-10.2-4.9-16.2-4.2-8.5 1-8.9.7-12.5-7.2-.3-.6-.5-1.1-.8-1.6-1.4-2.6-3.1-4.8-5.2-6.6-1.8-1.6-3.9-2.9-6.3-4-5.4-2.4-7.2-3.4-7.5-6.6 76.7 17.1 98.7-22.7 103.7-66.4.3.1.5.3.8.4.4.2.9.4 1.3.6 6.7 3 6.9 4 6 12-.7 6.1.8 11.4 4.4 16.4 5 7.2 5 7.6 0 14.6z"/></g><path d="m94.6 125.1c-1.2-.1-2.3-.1-3.5-.2-6.1-.9-11.5.8-16.5 4.3-7.8 5.5-7.9 5.5-15.7 0-5.1-3.6-10.5-5-16.8-4.3-8.8 1-9.2.7-12.9-7.4-2.7-5.9-6.9-10.1-12.8-12.8-8.1-3.7-8.4-4.1-7.4-12.9.7-6.3-.8-11.8-4.5-17-5.4-7.5-5.4-7.8 0-15.3 3.7-5.1 5.2-10.7 4.5-17-1-8.8-.7-9.3 7.4-12.9 6-2.6 10.1-6.8 12.8-12.7 3.7-8.2 4.2-8.5 13.1-7.4 6.2.8 11.5-.8 16.5-4.3 7.8-5.6 7.9-5.6 15.7-.1 5.1 3.6 10.5 5.1 16.8 4.4 8.8-1.1 9.4-.7 13.1 7.5 2.6 5.9 6.7 10 12.6 12.6 8.2 3.7 8.6 4.2 7.5 13.1-.7 6.3.8 11.8 4.5 17 5.3 7.4 5.3 7.8.1 15.1-3.7 5.2-5.3 10.8-4.6 17.2 1 8.7.6 9.3-7.5 12.9-5.9 2.6-10.1 6.6-12.6 12.6-.4 1-1 1.9-1.4 2.9-1.5 3.6-4 5.6-8.4 4.7z" stroke-linecap="round" stroke-linejoin="round" stroke-width="3"/><path d="m18.2 84c-.2-3.8-1.6-7.2-3.9-10.5-2-2.8-3.1-4.4-3.4-5.9m62.5 51.8c-6.6 4.6-6.6 4.6-13.2 0-4.3-3-8.9-4.3-14.2-3.6-.4 0-.8.1-1.2.1m48.1.2c-.8.1-1.6.1-2.6-.1-1-.1-2 0-2.9-.2-1.9-.3-3.6-.3-5.3 0m17.2-8c-.3.5-.5 1-.7 1.6-.1.3-.2.5-.4.8m-10.7-91.8c7.4-.9 8-.6 11 6.3 2.2 5 5.7 8.4 10.6 10.6 6.9 3.1 7.2 3.5 6.4 11-.3 2.7-.1 5.2.5 7.5m-44.9-40.7c.7.5 1.4 1 2.3 1.6 1.1.8 2.2 1.4 3.3 1.9m-21 .6c.1-.1.3-.1.4-.2m-37.9 33.9c.1-1.5.1-3 0-4.6-.8-7.4-.6-7.9 6.2-10.9 5-2.2 8.5-5.7 10.8-10.7 3.1-6.9 3.5-7.2 11.1-6.2 3.4.4 6.5 0 9.4-1.2" stroke-linecap="round" stroke-linejoin="round" stroke-width="3"/><g transform="translate(27 28)"><g fill-rule="nonzero"><circle cx="19.08248" cy="18.65136" r="13.099874" transform="matrix(.70710678 -.70710678 .70710678 .70710678 -7.599374 18.956208)"/><circle cx="19.4" cy="19.7" r="5.5"/><circle cx="60.37714" cy="59.96316" r="13.099874" transform="matrix(.70710678 -.70710678 .70710678 .70710678 -24.716302 60.255888)"/><circle cx="60.6" cy="60.1" r="5.5"/><path d="m66.7 19.1-46.4 46.4c-1.6 1.6-4.3 1.6-5.9 0s-1.6-4.3 0-5.9l46.4-46.4c1.6-1.6 4.3-1.6 5.9 0s1.6 4.3 0 5.9z"/></g><path d="m53 33.6-32.4 32.4c-1.9 1.9-5 1.9-6.9 0s-1.9-5 0-6.9l3.6-3.6" stroke-linecap="round" stroke-linejoin="round" stroke-width="3"/><path d="m29.3 43.5 30-30c1.9-1.9 5-1.9 6.9 0s1.9 5 0 6.9l-2.1 2.1" stroke-linecap="round" stroke-linejoin="round" stroke-width="3"/><path d="m73.5 62.5c-.5 2.6-1.7 5.1-3.7 7.1-5.3 5.3-13.9 5.3-19.2 0-.4-.4-.7-.8-1.1-1.2m-2.7-10.6c.4-2.7 1.7-5.3 3.8-7.4 5.3-5.3 13.9-5.3 19.2 0 .4.4.7.7 1 1.1m-5.4 5.9c-.3-.6-.6-1.1-1.1-1.5-2.3-2.3-6-2.3-8.3 0s-2.3 6 0 8.3c1.8 1.8 4.3 2.2 6.5 1.2" stroke-linecap="round" stroke-linejoin="round" stroke-width="3"/><path d="m8.8 11.2c.4-.5.7-.9 1.2-1.3 5.3-5.3 13.9-5.3 19.2 0s5.3 13.9 0 19.2-13.9 5.3-19.2 0c-.1-.1-.3-.3-.4-.4zm-2.6 6.2c0-.1 0-.2.1-.3zm9.3-2.1c-2.3 2.3-2.3 6 0 8.3s6 2.3 8.3 0 2.3-6 0-8.3-6-2.3-8.3 0z" stroke-linecap="round" stroke-linejoin="round" stroke-width="3"/></g></g></svg>

<?xml version="1.0" encoding="UTF-8"?>
<svg width="137px" height="136px" viewBox="0 0 137 136" version="1.1" xmlns="http://www.w3.org/2000/svg" xmlns:xlink="http://www.w3.org/1999/xlink">
    <!-- Generator: Sketch 51.2 (57519) - http://www.bohemiancoding.com/sketch -->
    <title>Discount</title>
    <desc>Created with Sketch.</desc>
    <defs></defs>
    <g id="Page-1" stroke="none" stroke-width="1" fill="none" fill-rule="evenodd">
        <g id="Discount" transform="translate(2.000000, 1.000000)">
            <path d="M94.6,125.1 C93.4,125 92.3,125 91.1,124.9 C85,124 79.6,125.7 74.6,129.2 C66.8,134.7 66.7,134.7 58.9,129.2 C53.8,125.6 48.4,124.2 42.1,124.9 C33.3,125.9 32.9,125.6 29.2,117.5 C26.5,111.6 22.3,107.4 16.4,104.7 C8.3,101 8,100.6 9,91.8 C9.7,85.5 8.2,80 4.5,74.8 C-0.9,67.3 -0.9,67 4.5,59.5 C8.2,54.4 9.7,48.8 9,42.5 C8,33.7 8.3,33.2 16.4,29.6 C22.4,27 26.5,22.8 29.2,16.9 C32.9,8.7 33.4,8.4 42.3,9.5 C48.5,10.3 53.8,8.7 58.8,5.2 C66.6,-0.4 66.7,-0.4 74.5,5.1 C79.6,8.7 85,10.2 91.3,9.5 C100.1,8.4 100.7,8.8 104.4,17 C107,22.9 111.1,27 117,29.6 C125.2,33.3 125.6,33.8 124.5,42.7 C123.8,49 125.3,54.5 129,59.7 C134.3,67.1 134.3,67.5 129.1,74.8 C125.4,80 123.8,85.6 124.5,92 C125.5,100.7 125.1,101.3 117,104.9 C111.1,107.5 106.9,111.5 104.4,117.5 C104,118.5 103.4,119.4 103,120.4 C101.5,124 99,126 94.6,125.1 Z" id="Shape" class="fill-neutral" fill-rule="nonzero"></path>
            <path d="M129.2,62.1 C125.6,57.1 124.1,51.8 124.8,45.7 C125.7,37.6 125.5,36.7 118.8,33.7 C118.4,33.5 118,33.3 117.5,33.1 C117.2,33 116.9,32.8 116.7,32.7 C111.5,30.2 107.8,26.3 105.4,20.9 C105.3,20.7 105.2,20.4 105.1,20.2 C103.2,15.9 102.1,14 99.8,13.5 C98.2,13.1 96.1,13.3 92.7,13.7 C86.7,14.4 81.4,12.9 76.5,9.5 C69,4.2 68.9,4.2 61.4,9.6 C56.6,13 51.4,14.5 45.5,13.8 C36.9,12.8 36.4,13 32.8,20.9 C30.2,26.6 26.2,30.6 20.5,33.2 C12.7,36.7 12.4,37.2 13.4,45.7 C14.1,51.8 12.6,57.1 9.1,62.1 C3.9,69.4 3.9,69.6 9.1,76.9 C12.6,81.9 14.1,87.2 13.4,93.3 C13.3,94.4 13.2,95.4 13.1,96.3 C13,97.5 13,98.4 13.1,99.2 C13.4,102.4 15.2,103.3 20.6,105.8 C23,106.9 25.1,108.2 26.9,109.8 C29,111.6 30.7,113.8 32.1,116.4 C32.4,116.9 32.7,117.5 32.9,118 C36.5,125.9 36.9,126.1 45.4,125.2 C51.4,124.5 56.7,125.9 61.6,129.4 C69.2,134.7 69.3,134.7 76.8,129.4 C81.6,126 86.8,124.3 92.8,125.2 C93.9,125.4 95,125.4 96.1,125.4 C100.3,126.3 102.8,124.4 104.3,120.7 C104.7,119.8 105.2,118.8 105.6,117.9 C108,112.2 112.1,108.3 117.7,105.8 C125.5,102.3 125.9,101.7 124.9,93.4 C124.2,87.2 125.7,81.8 129.3,76.8 C134.3,69.6 134.3,69.2 129.2,62.1 Z" id="Shape" class="fill-primary-100" fill-rule="nonzero"></path>
            <path d="M129.3,76.6 C125.7,81.6 124.2,87 124.9,93.2 C125.9,101.6 125.5,102.2 117.7,105.6 C112,108.1 107.9,112 105.6,117.7 C105.2,118.6 104.7,119.6 104.3,120.5 C102.8,124.2 100.3,126.2 96.1,125.2 C95,125.1 93.9,125.2 92.8,125 C86.9,124.1 81.7,125.8 76.8,129.2 C69.3,134.5 69.2,134.5 61.6,129.2 C56.7,125.7 51.4,124.3 45.4,125 C36.9,126 36.5,125.7 32.9,117.8 C32.6,117.2 32.4,116.7 32.1,116.2 C30.7,113.6 29,111.4 26.9,109.6 C25.1,108 23,106.7 20.6,105.6 C15.2,103.2 13.4,102.2 13.1,99 C89.8,116.1 111.8,76.3 116.8,32.6 C117.1,32.7 117.3,32.9 117.6,33 C118,33.2 118.5,33.4 118.9,33.6 C125.6,36.6 125.8,37.6 124.9,45.6 C124.2,51.7 125.7,57 129.3,62 C134.3,69.2 134.3,69.6 129.3,76.6 Z" id="Shape" class="fill-primary-200" fill-rule="nonzero"></path>
            <path d="M94.6,125.1 C93.4,125 92.3,125 91.1,124.9 C85,124 79.6,125.7 74.6,129.2 C66.8,134.7 66.7,134.7 58.9,129.2 C53.8,125.6 48.4,124.2 42.1,124.9 C33.3,125.9 32.9,125.6 29.2,117.5 C26.5,111.6 22.3,107.4 16.4,104.7 C8.3,101 8,100.6 9,91.8 C9.7,85.5 8.2,80 4.5,74.8 C-0.9,67.3 -0.9,67 4.5,59.5 C8.2,54.4 9.7,48.8 9,42.5 C8,33.7 8.3,33.2 16.4,29.6 C22.4,27 26.5,22.8 29.2,16.9 C32.9,8.7 33.4,8.4 42.3,9.5 C48.5,10.3 53.8,8.7 58.8,5.2 C66.6,-0.4 66.7,-0.4 74.5,5.1 C79.6,8.7 85,10.2 91.3,9.5 C100.1,8.4 100.7,8.8 104.4,17 C107,22.9 111.1,27 117,29.6 C125.2,33.3 125.6,33.8 124.5,42.7 C123.8,49 125.3,54.5 129,59.7 C134.3,67.1 134.3,67.5 129.1,74.8 C125.4,80 123.8,85.6 124.5,92 C125.5,100.7 125.1,101.3 117,104.9 C111.1,107.5 106.9,111.5 104.4,117.5 C104,118.5 103.4,119.4 103,120.4 C101.5,124 99,126 94.6,125.1 Z" id="Shape" class="stroke-primary" stroke-width="3" stroke-linecap="round" stroke-linejoin="round"></path>
            <path d="M18.2,84 C18,80.2 16.6,76.8 14.3,73.5 C12.3,70.7 11.2,69.1 10.9,67.6 M73.4,119.4 C66.8,124 66.8,124 60.2,119.4 C55.9,116.4 51.3,115.1 46,115.8 C45.6,115.8 45.2,115.9 44.8,115.9 M92.9,116.1 C92.1,116.2 91.3,116.2 90.3,116 C89.3,115.9 88.3,116 87.4,115.8 C85.5,115.5 83.8,115.5 82.1,115.8 M99.3,107.8 C99,108.3 98.8,108.8 98.6,109.4 C98.5,109.7 98.4,109.9 98.2,110.2 M87.5,18.4 C94.9,17.5 95.5,17.8 98.5,24.7 C100.7,29.7 104.2,33.1 109.1,35.3 C116,38.4 116.3,38.8 115.5,46.3 C115.2,49 115.4,51.5 116,53.8 M71.1,13.1 C71.8,13.6 72.5,14.1 73.4,14.7 C74.5,15.5 75.6,16.1 76.7,16.6 M55.7,17.2 C55.8,17.1 56,17.1 56.1,17 M18.2,50.9 C18.3,49.4 18.3,47.9 18.2,46.3 C17.4,38.9 17.6,38.4 24.4,35.4 C29.4,33.2 32.9,29.7 35.2,24.7 C38.3,17.8 38.7,17.5 46.3,18.5 C49.7,18.9 52.8,18.5 55.7,17.3" id="Shape" class="stroke-primary" stroke-width="3" stroke-linecap="round" stroke-linejoin="round"></path>
            <g id="Group" transform="translate(27.000000, 28.000000)">
                <circle id="Oval" class="fill-primary-500" fill-rule="nonzero" transform="translate(19.082480, 18.651360) rotate(-45.000000) translate(-19.082480, -18.651360) " cx="19.08248" cy="18.65136" r="13.0998744"></circle>
                <circle id="Oval" class="fill-neutral" fill-rule="nonzero" cx="19.4" cy="19.7" r="5.5"></circle>
                <circle id="Oval" class="fill-primary-500" fill-rule="nonzero" transform="translate(60.377140, 59.963160) rotate(-45.000000) translate(-60.377140, -59.963160) " cx="60.37714" cy="59.96316" r="13.0998744"></circle>
                <circle id="Oval" class="fill-neutral" fill-rule="nonzero" cx="60.6" cy="60.1" r="5.5"></circle>
                <path d="M66.7,19.1 L20.3,65.5 C18.7,67.1 16,67.1 14.4,65.5 C12.8,63.9 12.8,61.2 14.4,59.6 L60.8,13.2 C62.4,11.6 65.1,11.6 66.7,13.2 C68.3,14.8 68.3,17.5 66.7,19.1 Z" id="Shape" class="fill-primary-500" fill-rule="nonzero"></path>
                <path d="M53,33.6 L20.6,66 C18.7,67.9 15.6,67.9 13.7,66 C11.8,64.1 11.8,61 13.7,59.1 L17.3,55.5" id="Shape" class="stroke-primary" stroke-width="3" stroke-linecap="round" stroke-linejoin="round"></path>
                <path d="M29.3,43.5 L59.3,13.5 C61.2,11.6 64.3,11.6 66.2,13.5 C68.1,15.4 68.1,18.5 66.2,20.4 L64.1,22.5" id="Shape" class="stroke-primary" stroke-width="3" stroke-linecap="round" stroke-linejoin="round"></path>
                <path d="M73.5,62.5 C73,65.1 71.8,67.6 69.8,69.6 C64.5,74.9 55.9,74.9 50.6,69.6 C50.2,69.2 49.9,68.8 49.5,68.4 M46.8,57.8 C47.2,55.1 48.5,52.5 50.6,50.4 C55.9,45.1 64.5,45.1 69.8,50.4 C70.2,50.8 70.5,51.1 70.8,51.5 M65.4,57.4 C65.1,56.8 64.8,56.3 64.3,55.9 C62,53.6 58.3,53.6 56,55.9 C53.7,58.2 53.7,61.9 56,64.2 C57.8,66 60.3,66.4 62.5,65.4" id="Shape" class="stroke-primary" stroke-width="3" stroke-linecap="round" stroke-linejoin="round"></path>
                <path d="M8.8,11.2 C9.2,10.7 9.5,10.3 10,9.9 C15.3,4.6 23.9,4.6 29.2,9.9 C34.5,15.2 34.5,23.8 29.2,29.1 C23.9,34.4 15.3,34.4 10,29.1 C9.9,29 9.7,28.8 9.6,28.7 L8.8,11.2 Z M6.2,17.4 C6.2,17.3 6.2,17.2 6.3,17.1 L6.2,17.4 Z M15.5,15.3 C13.2,17.6 13.2,21.3 15.5,23.6 C17.8,25.9 21.5,25.9 23.8,23.6 C26.1,21.3 26.1,17.6 23.8,15.3 C21.5,13 17.8,13 15.5,15.3 Z" id="Shape" class="stroke-primary" stroke-width="3" stroke-linecap="round" stroke-linejoin="round"></path>
            </g>
        </g>
    </g>
</svg>
